src/icons/svg/tree.svg

<?xml version="1.0" encoding="UTF-8"?>
<svg width="40px" height="40px" viewBox="0 0 40 40" version="1.1" xmlns="http://www.w3.org/2000/svg"
>
    <path d="M39.5978127,28.1162348 C39.8659376,28.4240472 40,28.7831095 40,29.1934218 L40,38.4287293 C40,38.8734165 39.8659376,39.2412288 39.5978127,39.5318537 C39.3296879,39.8224785 39.0018755,39.967791 38.6146882,39.967791 L30.5700051,39.967791 C30.2121928,39.967791 29.8993804,39.8224785 29.6312556,39.5318537 C29.3631307,39.2412288 29.2290683,38.8734165 29.2290683,38.4287293 L29.2290683,29.1934218 C29.2290683,28.9199844 29.2884433,28.663422 29.4078182,28.4240472 C29.5271931,28.1846723 29.6909431,27.9965474 29.8993804,27.8596725 C30.0974885,27.7259791 30.3310057,27.6544876 30.5700051,27.6543601 L33.6090659,27.6543601 L33.6090659,21.5487384 C33.6111083,21.3524546 33.5649683,21.1586666 33.474691,20.9843637 C33.3913205,20.8202075 33.2686079,20.6792437 33.1175037,20.5740514 C32.9735488,20.4730853 32.8017717,20.4193572 32.6259415,20.4203015 L21.2290726,20.4203015 L21.2290726,27.6543601 L24.2681335,27.6543601 C24.6256333,27.6543601 24.9384456,27.80811 25.206883,28.1162348 C25.4750078,28.4240472 25.6090703,28.7831095 25.6090703,29.1934218 L25.6090703,38.4287293 C25.6090703,38.7024791 25.5493828,38.958729 25.4300079,39.1984164 C25.3112579,39.4377912 25.1471955,39.6259161 24.9384456,39.7627911 C24.7403906,39.8963144 24.5069938,39.967791 24.2681335,39.967791 L16.2234503,39.967791 C15.98459,39.967791 15.7511932,39.8963144 15.5531382,39.7627911 C15.3443883,39.6259161 15.1731384,39.4377912 15.039076,39.1984164 C14.9061714,38.9637325 14.8368031,38.6984312 14.8378261,38.4287293 L14.8378261,29.1934218 C14.8378261,28.7831095 14.972201,28.4240472 15.2403258,28.1162348 C15.5084507,27.80811 15.836263,27.6543601 16.2234503,27.6543601 L19.2178237,27.6543601 L19.2178237,20.419989 L7.37408009,20.419989 C7.07626775,20.419989 6.83033038,20.5312389 6.63689299,20.7537388 C6.44314309,20.9759262 6.34626814,21.2412385 6.34626814,21.5487384 L6.34626814,27.6543601 L9.38564151,27.6543601 C9.7728288,27.6543601 10.0931411,27.80811 10.346266,28.1162348 C10.5993909,28.4240472 10.7262658,28.7831095 10.7262658,29.1934218 L10.7262658,38.4287293 C10.7262658,38.8734165 10.5997034,39.2412288 10.346266,39.5318537 C10.0931411,39.8224785 9.7728288,39.967791 9.38564151,39.967791 L1.34064584,39.967791 C1.19189592,39.967791 1.050021,39.942166 0.916271071,39.890916 C0.786803142,39.8422247 0.666074047,39.7728899 0.558771264,39.6856036 C0.445476578,39.5899112 0.347470417,39.4774676 0.268146421,39.3521663 C0.179899044,39.2176339 0.112177233,39.0707102 0.0672090292,38.916229 C0.0218227866,38.7577345 -0.000799389615,38.5935921 -9.1780629e-16,38.4287293 L-9.1780629e-16,29.1934218 C-9.1780629e-16,29.0568593 0.0150215573,28.9199844 0.0447090413,28.7831095 C0.0703979743,28.6570642 0.115631425,28.535809 0.178771469,28.4237347 C0.238146437,28.3212347 0.312833897,28.2187348 0.402208849,28.1162348 C0.4915838,28.0134224 0.580958752,27.9281099 0.670333704,27.8596725 C0.759708656,27.7909225 0.8640836,27.739985 0.983146035,27.7056101 C1.10252097,27.6712351 1.22158341,27.6543601 1.34064584,27.6543601 L4.3800192,27.6543601 L4.3800192,19.2399896 C4.3800192,18.9321773 4.47689415,18.6671774 4.67064405,18.4449901 C4.86408144,18.2224902 5.09501882,18.1112402 5.36314367,18.1112402 L19.2178237,18.1112402 L19.2178237,12.3653058 L16.2234503,12.3653058 C15.8359505,12.3653058 15.5084507,12.2115559 15.2403258,11.9037436 C14.9765619,11.6073131 14.8331142,11.2230026 14.8381386,10.8262442 L14.8381386,1.59031164 C14.8381386,1.14562438 14.972201,0.769374585 15.2403258,0.461562251 C15.5084507,0.153749917 15.836263,-7.63277918e-16 16.2234503,-7.63277918e-16 L24.2681335,-7.63277918e-16 C24.5065709,-7.63277918e-16 24.7300082,0.0768749586 24.9384456,0.230937375 C25.1473375,0.385237904 25.3159545,0.587621208 25.4300079,0.820937057 C25.5493828,1.06031193 25.6090703,1.31687429 25.6090703,1.59031164 L25.6090703,10.8256192 C25.6090703,11.2359314 25.4746953,11.5953062 25.206883,11.9031186 C24.9384456,12.2109309 24.6256333,12.3646808 24.2681335,12.3646808 L21.2290726,12.3646808 L21.2290726,18.1112402 L34.5921904,18.1112402 C34.8903153,18.1112402 35.1359401,18.2221777 35.32969,18.4446776 C35.5234399,18.6668649 35.6203149,18.9321773 35.6203149,19.2399896 L35.6203149,27.6540476 L38.6146882,27.6540476 C39.0018755,27.6540476 39.3296879,27.8077975 39.5978127,28.1159223 L39.5978127,28.1162348 Z"
          id="路径"></path>
</svg>

<svg width="40" height="40" xmlns="http://www.w3.org/2000/svg"><path d="M39.598 28.116c.268.308.402.667.402 1.077v9.236c0 .444-.134.812-.402 1.103-.268.29-.596.436-.983.436H30.57c-.358 0-.67-.146-.939-.436-.268-.29-.402-.659-.402-1.103v-9.236c0-.273.06-.53.179-.769.12-.24.283-.427.491-.564a1.2 1.2 0 0 1 .671-.206h3.04V21.55a1.2 1.2 0 0 0-.135-.565 1.115 1.115 0 0 0-.357-.41.848.848 0 0 0-.492-.154H21.229v7.234h3.04c.357 0 .67.154.938.462.268.308.402.667.402 1.077v9.236c0 .273-.06.53-.179.77-.119.239-.283.427-.492.564a1.2 1.2 0 0 1-.67.205h-8.045a1.2 1.2 0 0 1-.67-.205 1.586 1.586 0 0 1-.514-.565 1.55 1.55 0 0 1-.201-.77v-9.235c0-.41.134-.769.402-1.077.268-.308.596-.462.983-.462h2.995V20.42H7.374a.934.934 0 0 0-.737.334 1.17 1.17 0 0 0-.29.795v6.105h3.039c.387 0 .707.154.96.462.253.308.38.667.38 1.077v9.236c0 .444-.126.812-.38 1.103-.253.29-.573.436-.96.436H1.34c-.15 0-.291-.026-.425-.077a1.281 1.281 0 0 1-.648-.539 1.62 1.62 0 0 1-.2-.436A1.74 1.74 0 0 1 0 38.43v-9.236c0-.136.015-.273.045-.41.025-.126.07-.247.134-.36.06-.102.134-.204.223-.307.09-.103.179-.188.268-.256a.93.93 0 0 1 .313-.154c.12-.035.239-.052.358-.052H4.38V19.24c0-.308.097-.573.29-.795.194-.223.425-.334.693-.334h13.855v-5.746h-2.995c-.387 0-.715-.153-.983-.461a1.59 1.59 0 0 1-.402-1.078V1.59c0-.444.134-.82.402-1.128.268-.308.596-.462.983-.462h8.045c.239 0 .462.077.67.23.21.155.378.358.492.59.12.24.18.497.18.77v9.236c0 .41-.135.77-.403 1.077-.269.308-.581.462-.939.462H21.23v5.746h13.363c.298 0 .544.111.738.334.193.222.29.487.29.795v8.414h2.995c.387 0 .715.154.983.462z"/></svg>
